X:1
T:Fib
M:4/4
L:1/4
Q:1/4=212
K:C
% op ,
V:1
A,CEC & 
V:2
Azec |
% op var
DB,G,B, & BdGB |
% id num
DB,G,z & dBGz |
W: num
% op {
EFB,F & fBfB |
% op if
EFB,F & ffBe |
% op (
CA,F,A, & cAzA |
% id num
CA,F,z & cAFz |
W: num
% op <=
A,CEC & cAAA |
% num 1
A,CEA, & czzz |
% op )
DB,G,B, & dBzd |
% op {
DB,G,B, & BGBG |
% op return
EFB,F & BzzB |
% op (
EFB,F & efzf |
% op ,
CA,F,A, & czFA |
% id num
CA,F,z & cAFz |
W: num
% op )
A,CEC & AczA |
% op }
A,CEC & czec |
% op return
DB,G,B, & GzzG |
% op (
DB,G,B, & dBzB |
% op ,
EFB,F & ezBf |
% call Fib
EFB,B, & % op +
CA,F,A, & czcF |
% call Fib
CA,F,F, & % op )
A,CEC & AczA |
% op }
A,CEC & czec |
